svg/color/avgoon.svg

<svg width="40" height="40" viewBox="0 0 40 40" fill="none" xmlns="http://www.w3.org/2000/svg">
<g clip-path="url(#clip0_820_3865)">
<path d="M20 0C31.0457 0 40 8.9543 40 20C40 31.0457 31.0457 40 20 40C8.95431 40 7.90517e-06 31.0457 0 20C6.58765e-07 8.95431 8.95431 1.97595e-06 20 0Z" fill="#F9D1D7"/>
<path d="M26 6C30.4183 6 34 9.58172 34 14V26C34 30.4183 30.4183 34 26 34H14C9.58172 34 6 30.4183 6 26V14C6 9.58172 9.58172 6 14 6H26Z" fill="#E31837"/>
<g clip-path="url(#clip1_820_3865)">
<path d="M20 10C25.5233 10 30 14.4767 30 20C30.0006 21.0263 29.8432 22.0466 29.5333 23.025C29.2963 22.9089 29.0553 22.801 28.8108 22.7017C27.6675 22.2467 26.62 22.3992 25.5708 23.035C25.5708 23.035 25.1883 23.2683 25.0733 23.34C24.585 23.6483 24.1233 23.9375 23.68 23.9375C23.2567 23.9375 22.8408 23.825 22.665 23.0067C22.39 21.7292 21.7192 18.5917 21.4267 17.0383C21.255 16.1242 21.1608 15.6317 21.0633 15.2983C20.89 14.71 20.575 14.39 20.1267 14.34C20.1267 14.34 20.0567 14.3292 20 14.3292C19.9433 14.3292 19.865 14.3408 19.865 14.3408C19.4225 14.3942 19.1092 14.7133 18.9367 15.2992C18.8392 15.6325 18.745 16.1242 18.5733 17.0383C18.2808 18.5917 17.61 21.73 17.335 23.0067C17.16 23.825 16.7433 23.9375 16.32 23.9375C15.8775 23.9375 15.415 23.6475 14.9267 23.34C14.8117 23.2683 14.4292 23.035 14.4292 23.035C13.38 22.3992 12.3325 22.2467 11.1892 22.7017C10.9383 22.8017 10.7008 22.9108 10.4667 23.0242C10.1568 22.046 9.99943 21.026 10 20C10 14.4767 14.4767 10 20 10ZM26.9792 24.1467C26.6017 24.2733 26.2667 24.4967 25.9325 24.7067C25.3025 25.1025 24.5883 25.5517 23.6792 25.5517C22.3342 25.5517 21.3883 24.7483 21.0858 23.3458C20.8525 22.26 20 18.1608 20 18.1608C19.6491 19.8915 19.2872 21.6198 18.9142 23.3458C18.6125 24.7483 17.6667 25.5517 16.3208 25.5517C15.4125 25.5517 14.6992 25.1025 14.0683 24.7067C13.7342 24.4967 13.3983 24.2733 13.0217 24.1467C12.6393 24.0213 12.2274 24.0184 11.8433 24.1383C11.5683 24.2192 11.3067 24.3333 11.0508 24.46C12.6892 27.7433 16.0058 30 19.925 30C23.8442 30 27.3108 27.7433 28.95 24.46C28.6958 24.3302 28.431 24.2226 28.1583 24.1383C27.774 24.0184 27.3618 24.0213 26.9792 24.1467Z" fill="white"/>
</g>
</g>
<defs>
<clipPath id="clip0_820_3865">
<rect width="40" height="40" fill="white"/>
</clipPath>
<clipPath id="clip1_820_3865">
<rect width="20" height="20" fill="white" transform="translate(10 10)"/>
</clipPath>
</defs>
</svg>

<svg xmlns="http://www.w3.org/2000/svg" width="40" height="40" fill="none" viewBox="0 0 40 40"><g clip-path="url(#avgoon_svg-a)"><path fill="#F9D1D7" d="M20 0c11.046 0 20 8.954 20 20s-8.954 20-20 20S0 31.046 0 20 8.954 0 20 0"/><path fill="#E31837" d="M26 6a8 8 0 0 1 8 8v12a8 8 0 0 1-8 8H14a8 8 0 0 1-8-8V14a8 8 0 0 1 8-8z"/><g clip-path="url(#avgoon_svg-b)"><path fill="#fff" d="M20 10c5.523 0 10 4.477 10 10a10 10 0 0 1-.467 3.025 11 11 0 0 0-.722-.323c-1.143-.455-2.191-.303-3.24.333 0 0-.383.233-.498.305-.488.308-.95.598-1.393.598-.423 0-.84-.113-1.015-.931-.275-1.278-.946-4.415-1.238-5.969-.172-.914-.266-1.406-.364-1.74-.173-.588-.488-.908-.936-.958 0 0-.07-.01-.127-.01s-.135.01-.135.01c-.442.054-.756.373-.928.96-.098.332-.192.824-.364 1.738-.292 1.554-.963 4.692-1.238 5.969-.175.818-.592.93-1.015.93-.443 0-.905-.29-1.393-.597l-.498-.305c-1.049-.636-2.097-.788-3.24-.333-.25.1-.488.209-.722.322A10 10 0 0 1 10 20c0-5.523 4.477-10 10-10m6.98 14.147c-.378.126-.713.35-1.047.56-.63.395-1.345.845-2.254.845-1.345 0-2.29-.804-2.593-2.206C20.853 22.26 20 18.16 20 18.16q-.526 2.596-1.086 5.185c-.302 1.402-1.247 2.206-2.593 2.206-.909 0-1.622-.45-2.253-.845-.334-.21-.67-.434-1.046-.56a1.93 1.93 0 0 0-1.179-.009 5 5 0 0 0-.792.322c1.638 3.283 4.955 5.54 8.874 5.54s7.386-2.257 9.025-5.54a5 5 0 0 0-.792-.322 1.94 1.94 0 0 0-1.179.009"/></g></g><defs><clipPath id="avgoon_svg-a"><path fill="#fff" d="M0 0h40v40H0z"/></clipPath><clipPath id="avgoon_svg-b"><path fill="#fff" d="M10 10h20v20H10z"/></clipPath></defs></svg>
